packages/icons/src/SVG/replay-5.svg

<svg width="12" height="12" viewBox="0 0 12 12" >
<path d="M7.97886 2C10.2278 2 12.0395 3.83469 11.9993 6.07142C11.9602 8.25237 10.1717 10 7.97886 10H4V12L0 9.5L4 7V9H7.97886C9.62347 9 10.9649 7.68928 10.9942 6.05356C11.0243 4.37602 9.66553 3 7.97886 3V2Z" />
<path d="M3.63525 2.12598C3.95654 2.12598 4.2391 2.18408 4.48291 2.30029C4.729 2.41423 4.92041 2.58284 5.05713 2.80615C5.19385 3.02718 5.26221 3.29834 5.26221 3.61963C5.26221 3.97054 5.18815 4.2736 5.04004 4.52881C4.89193 4.78174 4.67432 4.97656 4.38721 5.11328C4.1001 5.25 3.75033 5.31836 3.33789 5.31836C3.07585 5.31836 2.83089 5.29557 2.60303 5.25C2.37744 5.20443 2.18262 5.13607 2.01855 5.04492V4.32031C2.18945 4.41602 2.39453 4.49463 2.63379 4.55615C2.87305 4.6154 3.10205 4.64502 3.3208 4.64502C3.55322 4.64502 3.7526 4.61084 3.91895 4.54248C4.08529 4.47412 4.21289 4.3693 4.30176 4.22803C4.3929 4.08675 4.43848 3.90788 4.43848 3.69141C4.43848 3.4043 4.34619 3.18327 4.16162 3.02832C3.97933 2.87109 3.69336 2.79248 3.30371 2.79248C3.16699 2.79248 3.02116 2.80501 2.86621 2.83008C2.71354 2.85286 2.58594 2.87793 2.4834 2.90527L2.13135 2.69678L2.31934 0.25293H4.91699V0.960449H3.02686L2.91748 2.20459C2.99951 2.18636 3.09749 2.16927 3.21143 2.15332C3.32536 2.13509 3.46663 2.12598 3.63525 2.12598Z" />
</svg>

<!-- Generated by IcoMoon.io -->
<svg version="1.1" xmlns="http://www.w3.org/2000/svg" width="12" height="12" viewBox="0 0 12 12">
<title>replay-5</title>
<path fill="#4c505b" d="M7.979 2c2.249 0 4.061 1.835 4.020 4.071-0.039 2.181-1.828 3.929-4.020 3.929h-3.979v2l-4-2.5 4-2.5v2h3.979c1.645 0 2.986-1.311 3.015-2.946 0.030-1.678-1.329-3.054-3.015-3.054v-1z"></path>
<path fill="#4c505b" d="M3.635 2.126c0.321 0 0.604 0.058 0.848 0.174 0.246 0.114 0.437 0.283 0.574 0.506 0.137 0.221 0.205 0.492 0.205 0.813 0 0.351-0.074 0.654-0.222 0.909-0.148 0.253-0.366 0.448-0.653 0.584s-0.637 0.205-1.049 0.205c-0.262 0-0.507-0.023-0.735-0.068-0.226-0.046-0.42-0.114-0.584-0.205v-0.725c0.171 0.096 0.376 0.174 0.615 0.236 0.239 0.059 0.468 0.089 0.687 0.089 0.232 0 0.432-0.034 0.598-0.103s0.294-0.173 0.383-0.314c0.091-0.141 0.137-0.32 0.137-0.537 0-0.287-0.092-0.508-0.277-0.663-0.182-0.157-0.468-0.236-0.858-0.236-0.137 0-0.283 0.013-0.437 0.038-0.153 0.023-0.28 0.048-0.383 0.075l-0.352-0.208 0.188-2.444h2.598v0.708h-1.89l-0.109 1.244c0.082-0.018 0.18-0.035 0.294-0.051 0.114-0.018 0.255-0.027 0.424-0.027z"></path>
</svg>
